build/img/icon-fb.svg

<svg width="24" height="24" viewBox="0 0 24 24" fill="none" xmlns="http://www.w3.org/2000/svg">
<path d="M15.5378 5.18705H17.4V1.94345C17.0787 1.89925 15.9738 1.7998 14.687 1.7998C12.0021 1.7998 10.1629 3.48875 10.1629 6.59296V9.44981H7.20001V13.0759H10.1629V22.1998H13.7955V13.0768H16.6385L17.0898 9.45066H13.7946V6.95251C13.7955 5.90445 14.0776 5.18705 15.5378 5.18705Z" fill="black"/>
</svg>

<svg width="24" height="24" fill="none" xmlns="http://www.w3.org/2000/svg"><path d="M15.538 5.187H17.4V1.943c-.321-.044-1.426-.143-2.713-.143-2.685 0-4.524 1.689-4.524 4.793V9.45H7.2v3.626h2.963V22.2h3.633v-9.123h2.843l.45-3.626h-3.294V6.953c0-1.049.283-1.766 1.743-1.766z" fill="#000"/></svg>
